X: 42769
T: White Petticoat, The
R: jig
M: 6/8
K: Eminor
|:A|"Em" Bed "Am"cBA|"Em"GFE B,EG|"Bm"FBB cBB|"Am"eBB cBA|
"Em"Bed "Am"cBA|"Em"GFE B,EG|"Bm"FBB "Am"cBA|1 "Em"GED E2:|2 "Em"GED E2||
|:f|"C"gec Gce|gaf geB|"Am"cBA EAc|"Em"Be^d eBG|
"Bm"FBB "G"GBB|"Bm"FBA GFE|"Em"B,EG "Am"cBA|1 "Em"GED E2:|2 "Em"GED E2||

